SharedCollection/src/main/webapp/images/templateimg/imgFont/pencil-fill.svg

<?xml version="1.0" encoding="UTF-8"?>
<!-- Generated by Pixelmator Pro 3.0.1 -->
<svg width="16" height="16" viewBox="0 0 16 16" xmlns="http://www.w3.org/2000/svg" xmlns:xlink="http://www.w3.org/1999/xlink">
    <path id="Percorso" fill="#ffffff" stroke="none" d="M 12.854 0.146 C 12.658751 -0.049191 12.34225 -0.049191 12.147 0.146 L 10.5 1.793 L 14.207 5.5 L 15.854 3.854 C 15.948042 3.760196 16.000895 3.632828 16.000895 3.5 C 16.000895 3.367172 15.948042 3.239804 15.854 3.146 L 12.854 0.146 Z M 13.5 6.207 L 9.793 2.5 L 3.293 9 L 3.5 9 C 3.776142 9 4 9.223858 4 9.5 L 4 10 L 4.5 10 C 4.776143 10 5 10.223858 5 10.5 L 5 11 L 5.5 11 C 5.776143 11 6 11.223858 6 11.5 L 6 12 L 6.5 12 C 6.776143 12 7 12.223858 7 12.5 L 7 12.707 L 13.5 6.207 Z M 6.032 13.675 C 6.010958 13.619048 6.00012 13.559777 6 13.5 L 6 13 L 5.5 13 C 5.223857 13 5 12.776142 5 12.5 L 5 12 L 4.5 12 C 4.223857 12 4 11.776142 4 11.5 L 4 11 L 3.5 11 C 3.223858 11 3 10.776142 3 10.5 L 3 10 L 2.5 10 C 2.440221 9.999902 2.380946 9.989063 2.325 9.968 L 2.146 10.146 C 2.09835 10.193985 2.060928 10.251138 2.036 10.314 L 0.036 15.314 C -0.038344 15.499731 0.005179 15.711898 0.146641 15.853359 C 0.288103 15.994822 0.500269 16.038343 0.686 15.964 L 5.686 13.964 C 5.748863 13.939072 5.806015 13.90165 5.854 13.854 L 6.032 13.676 Z"/>
</svg>

<svg xmlns="http://www.w3.org/2000/svg" width="16" height="16" fill="currentColor" class="bi bi-pencil-fill" viewBox="0 0 16 16">
  <path d="M12.854.146a.5.5 0 0 0-.707 0L10.5 1.793 14.207 5.5l1.647-1.646a.5.5 0 0 0 0-.708l-3-3zm.646 6.061L9.793 2.5 3.293 9H3.5a.5.5 0 0 1 .5.5v.5h.5a.5.5 0 0 1 .5.5v.5h.5a.5.5 0 0 1 .5.5v.5h.5a.5.5 0 0 1 .5.5v.207l6.5-6.5zm-7.468 7.468A.5.5 0 0 1 6 13.5V13h-.5a.5.5 0 0 1-.5-.5V12h-.5a.5.5 0 0 1-.5-.5V11h-.5a.5.5 0 0 1-.5-.5V10h-.5a.499.499 0 0 1-.175-.032l-.179.178a.5.5 0 0 0-.11.168l-2 5a.5.5 0 0 0 .65.65l5-2a.5.5 0 0 0 .168-.11l.178-.178z"/>
</svg>
